src/assets/tokens/SDT.svg

<svg width="471" height="391" viewBox="0 0 471 391" fill="none" xmlns="http://www.w3.org/2000/svg">
<path fill-rule="evenodd" clip-rule="evenodd" d="M98.4199 249.595L105.447 298.127L70.2999 305.06L42.18 298.127L0 228.798L14.06 103.997L63.2668 41.6002L126.533 34.6679L189.8 0L274.167 41.6002L253.073 62.3972C313.998 71.6403 353.836 78.5787 372.58 83.2005C400.7 90.1327 449.913 124.801 456.94 131.733C463.973 138.665 460.619 170.534 456.94 194.13C454.483 209.861 449.798 221.415 442.88 228.798L471 388.26H407.733L421.793 374.396L365.553 256.527L210.893 277.331L154.666 388.26H91.3998L112.487 353.592L154.666 207.995L126.546 180.265L63.2668 194.13L56.2336 249.595L77.3205 270.398L98.4132 249.595H98.4199ZM197.311 331.48L218.315 288.897L246.32 281.802L267.324 388.26H197.311L211.313 381.165L197.311 331.48ZM332.246 283.274L353.25 269.277L388.257 328.769L381.255 388.26H318.243L332.246 367.263V283.274Z" fill="black"/>
</svg>

<svg fill="none" height="391" width="471" xmlns="http://www.w3.org/2000/svg"><path clip-rule="evenodd" d="m98.42 249.595 7.027 48.532-35.147 6.933-28.12-6.933-42.18-69.329 14.06-124.801 49.207-62.397 63.266-6.932 63.267-34.668 84.367 41.6-21.094 20.797c60.925 9.243 100.763 16.183 119.507 20.804 28.12 6.932 77.333 41.6 84.36 48.532 7.033 6.932 3.679 38.801 0 62.397-2.457 15.731-7.142 27.285-14.06 34.668l28.12 159.462h-63.267l14.06-13.864-56.24-117.869-154.66 20.804-56.227 110.929h-63.266l21.087-34.668 42.179-145.597-28.12-27.73-63.28 13.865-7.032 55.465 21.086 20.803 21.093-20.803zm98.891 81.885 21.004-42.583 28.005-7.095 21.004 106.458h-70.013l14.002-7.095zm134.935-48.206 21.004-13.997 35.007 59.492-7.002 59.491h-63.012l14.003-20.997z" fill="#000" fill-rule="evenodd"/></svg>
